resources/icons/custom/hydraulic_config_add.svg

<?xml version="1.0" encoding="UTF-8" standalone="no"?>
<svg
   width="24"
   height="24"
   viewBox="0 0 24 24"
   fill="none"
   stroke="currentColor"
   stroke-width="1.5"
   stroke-linecap="round"
   stroke-linejoin="round"
   version="1.1"
   id="svg4"
   sodipodi:docname="hydraulic_config_add.svg"
   inkscape:version="1.2.1 (9c6d41e410, 2022-07-14)"
   xml:space="preserve"
   xmlns:inkscape="http://www.inkscape.org/namespaces/inkscape"
   xmlns:sodipodi="http://sodipodi.sourceforge.net/DTD/sodipodi-0.dtd"
   xmlns="http://www.w3.org/2000/svg"
   xmlns:svg="http://www.w3.org/2000/svg"><defs
     id="defs8" /><sodipodi:namedview
     id="namedview6"
     pagecolor="#505050"
     bordercolor="#ffffff"
     borderopacity="1"
     inkscape:showpageshadow="0"
     inkscape:pageopacity="0"
     inkscape:pagecheckerboard="1"
     inkscape:deskcolor="#505050"
     showgrid="false"
     inkscape:zoom="27.812867"
     inkscape:cx="14.309924"
     inkscape:cy="9.456055"
     inkscape:window-width="2520"
     inkscape:window-height="1574"
     inkscape:window-x="-11"
     inkscape:window-y="-11"
     inkscape:window-maximized="1"
     inkscape:current-layer="svg4" /><path
     style="fill:#d5e0ff;fill-opacity:1;stroke:none;stroke-width:1.5;stroke-linecap:round;stroke-dasharray:none;stroke-opacity:1"
     d="M 4.9617323,22.201954 4.0448905,15.694175 h 9.0246005 l -0.791001,6.615643 z"
     id="path6727" /><path
     style="fill:none;fill-opacity:0.472019;stroke:#2c55ff;stroke-width:1;stroke-linecap:round;stroke-dasharray:none;stroke-opacity:1"
     d="M 2.3010933,4.1707315 H 21.572749"
     id="path4716" /><path
     style="fill:none;fill-opacity:0.472019;stroke:#2c55ff;stroke-width:1;stroke-linecap:round;stroke-dasharray:none;stroke-opacity:1"
     d="M 3.5595038,10.858283 H 13.33915"
     id="path4716-0"
     sodipodi:nodetypes="cc" /><path
     style="fill:none;fill-opacity:0.472019;stroke:#2c55ff;stroke-width:1;stroke-linecap:round;stroke-dasharray:none;stroke-opacity:1"
     d="m 4.566232,15.676198 h 8.197644"
     id="path4716-0-6"
     sodipodi:nodetypes="cc" /><path
     id="path5255"
     style="fill:#d65702;fill-opacity:1;stroke:none;stroke-width:1.5;stroke-linecap:round;stroke-dasharray:none;stroke-opacity:1"
     d="m 6.5079406,19.380104 a 1.4561605,1.4741379 0 0 0 -0.484375,0.08594 1.4427872,1.015717 0 0 0 -0.3066406,-0.02344 1.4427872,1.015717 0 0 0 -1.4433594,1.015625 1.4427872,1.015717 0 0 0 0.8828126,0.935547 1.4561605,1.4741379 0 0 0 1.3515624,0.933594 1.4561605,1.4741379 0 0 0 1.2285157,-0.683594 1.0832413,1.0966148 0 0 0 0.8964843,0.486328 1.0832413,1.0966148 0 0 0 0.4902344,-0.121094 1.4427872,1.015717 0 0 0 1.232422,0.490234 1.4427872,1.015717 0 0 0 1.34375,-0.652343 0.8079915,0.81796682 0 0 0 0.322265,0.06836 0.8079915,0.81796682 0 0 0 0.806641,-0.818359 0.8079915,0.81796682 0 0 0 -0.806641,-0.81836 0.8079915,0.81796682 0 0 0 -0.433594,0.126953 0.8079915,0.81796682 0 0 0 -0.388671,-0.09961 0.8079915,0.81796682 0 0 0 -0.513672,0.1875 1.4427872,1.015717 0 0 0 -0.330078,-0.02539 A 1.4427872,1.015717 0 0 0 9.6309875,20.604713 1.0832413,1.0966148 0 0 0 8.7540344,19.944557 0.8079915,0.81796682 0 0 0 8.0528625,19.532448 0.8079915,0.81796682 0 0 0 7.4923156,19.76487 1.4561605,1.4741379 0 0 0 6.5079406,19.380104 Z" /><path
     style="fill:none;fill-opacity:0.472019;stroke:#000000;stroke-width:1;stroke-linecap:round;stroke-dasharray:none;stroke-opacity:1"
     d="m 2.0134566,2.4449116 c 0,0 3.0201849,19.8828834 3.0561395,19.7390654 0.035955,-0.143818 7.2268709,0 7.2268709,0 L 13.986332,9.3841459 h 7.910009 V 2.4808662"
     id="path4651" /><g
     id="g8858"
     transform="matrix(0.54940394,0,0,0.55531207,14.982117,20.808363)"
     style="stroke-width:1.81045;stroke-dasharray:none"><circle
       cx="-5.4279141"
       cy="-15.862006"
       r="10"
       id="circle8331"
       style="fill:#ffffff;fill-opacity:1;stroke-width:1.81045;stroke-dasharray:none" /><line
       x1="-5.4279141"
       y1="-19.862007"
       x2="-5.4279141"
       y2="-11.862006"
       id="line8333"
       style="stroke-width:1.81045;stroke-dasharray:none" /><line
       x1="-9.4279137"
       y1="-15.862006"
       x2="-1.4279141"
       y2="-15.862006"
       id="line8335"
       style="stroke-width:1.81045;stroke-dasharray:none" /></g></svg>

<?xml version="1.0" encoding="UTF-8"?>
<svg width="24" height="24" fill="none" stroke="currentColor" stroke-linecap="round" stroke-linejoin="round" stroke-width="1.5" version="1.1" viewBox="0 0 24 24" xml:space="preserve"
  xmlns="http://www.w3.org/2000/svg">
  <path d="m4.9617 22.202-0.91684-6.5078h9.0246l-0.791 6.6156z" fill="#d5e0ff" stroke="none"/>
  <g fill="none" stroke="#2c55ff" stroke-linecap="round" stroke-width="1">
    <path d="m2.3011 4.1707h19.272"/>
    <path d="m3.5595 10.858h9.7796"/>
    <path d="m4.5662 15.676h8.1976"/>
  </g>
  <path d="m6.5079 19.38a1.4562 1.4741 0 0 0-0.48438 0.08594 1.4428 1.0157 0 0 0-0.30664-0.02344 1.4428 1.0157 0 0 0-1.4434 1.0156 1.4428 1.0157 0 0 0 0.88281 0.93555 1.4562 1.4741 0 0 0 1.3516 0.93359 1.4562 1.4741 0 0 0 1.2285-0.68359 1.0832 1.0966 0 0 0 0.89648 0.48633 1.0832 1.0966 0 0 0 0.49023-0.12109 1.4428 1.0157 0 0 0 1.2324 0.49023 1.4428 1.0157 0 0 0 1.3438-0.65234 0.80799 0.81797 0 0 0 0.32226 0.06836 0.80799 0.81797 0 0 0 0.80664-0.81836 0.80799 0.81797 0 0 0-0.80664-0.81836 0.80799 0.81797 0 0 0-0.43359 0.12695 0.80799 0.81797 0 0 0-0.38867-0.09961 0.80799 0.81797 0 0 0-0.51367 0.1875 1.4428 1.0157 0 0 0-0.33008-0.02539 1.4428 1.0157 0 0 0-0.72461 0.13672 1.0832 1.0966 0 0 0-0.87695-0.66016 0.80799 0.81797 0 0 0-0.70117-0.41211 0.80799 0.81797 0 0 0-0.56055 0.23242 1.4562 1.4741 0 0 0-0.98438-0.38477z" fill="#d65702" stroke="none"/>
  <path d="m2.0135 2.4449s3.0202 19.883 3.0561 19.739c0.035955-0.14382 7.2269 0 7.2269 0l1.6899-12.8h7.91v-6.9033" fill="none" stroke="#000" stroke-linecap="round" stroke-width="1"/>
  <g transform="matrix(.5494 0 0 .55531 14.982 20.808)" stroke-width="1.8104">
    <circle cx="-5.4279" cy="-15.862" r="10" fill="#fff"/>
    <line x1="-5.4279" x2="-5.4279" y1="-19.862" y2="-11.862"/>
    <line x1="-9.4279" x2="-1.4279" y1="-15.862" y2="-15.862"/>
  </g>
</svg>
